X: 1
T: Dennis Doody's
M: 2/4
L: 1/8
R: polka
K: Emin
|:GE E/F/E/D/|GE EG|F/G/A/F/ D>E|FG A/B/A|
|GE E/F/E/D/|GE EF|GA BA|1 GF dF:|2 GF d2||
|:Be e/f/e/d/|Be e/f/e/d/|Be e(f|f)g e(f|
|f)g fg|eB BA|B2 E>F|GA B2:|
